X: 30608
T: One Summer's Morning
R: strathspey
M: 4/4
K: Dmajor
F<d A<B F2 E<D|d2 c<A B>A B<d|F<d A<B F2 E<D|D<F A<F E2 B<A|
F<d A<B F2 E<D|A<d c<d B<d A<d|F<d A<B F2 E<F|A2 D2 D4:|
FD DA, A,2 D<F|F<D E<F G>F E<G|FD DA, A,2 D<F|F<E D<F EA, A,2|
FD DA, A,2 D<F|F<D E<F G>F E<G|A<c d<A B<d A<F|G<F E<G FD D2:|

